GROUP_BEGIN square
    COLOR "red"
    FORWARD 100
    RIGHT 90
    FORWARD 100
    RIGHT 90
    FORWARD 100
    RIGHT 90
    FORWARD 100
GROUP_END

REPEAT 20 [
    USE square
    RIGHT 18
    MOVE 170
]

