CANVAS flower

SET_CANVAS flower

REPEAT 8 [
    LEFT 45 
    REPEAT 6 [
        REPEAT 90 [
            FORWARD 1
            LEFT 2
        ]
        LEFT 90
    ]
]

SET_CANVAS default
SET_ANGLE 0
MOVE_TO 0 0

REPEAT 4 [
REPEAT 5 [
	DRAW_CANVAS flower
	MOVE 120
]
	RIGHT 90
]

MOVE_TO 300 300
DRAW_CANVAS flower