GROUP_BEGIN flower

REPEAT 8 [
    LEFT 45 
    REPEAT 6 [
        REPEAT 90 [
            FORWARD 1
            LEFT 2
        ]
        LEFT 90
    ]
]

GROUP_END

REPEAT 4 [
    REPEAT 5 [
	    USE flower
	    MOVE 120
    ]
	RIGHT 90
]

